X:1
T:Let Someone Else
T:Beatrice W. Sutherland
T:Let Someone Else
T:Public Domain
T:Public Domain
C:Beatrice W. Sutherland
Z:Public Domain
%%score ( 1 2 ) ( 3 4 )
L:1/8
M:6/8
K:D
V:1 treble 
V:2 treble 
V:3 bass 
V:4 bass 
V:1
 [FA] | [FB]2 [FB] [FA]2 [DF] | (EF)[CE] D2 [DA] | [DB]2 [DB] (dc)[DB] | [DA]3- [DA]2 [FA] | %5
w: 1.~“Let|some- one else!” you|oft- * en say, When|serve the Lord; * And|one * else,”|
w: 2.~“Let|some- one else speak|forth * the word To|soul from sin”; * That|one * else,”|
w: 3.~“Let|some- one else go|forth,” * you say, To|yond the seas; * While|re- * main|
w: 4.~Oh,|ne- ver let your|lips * a- gain Those|words re- peat; * But|that * grace|
 [FB]2 [FB] [FA]2 [DF] | (EF)[CE] D2 [DF] | [DE]2 [DF] (^Gc)[DB] | [CA]3- [CA]2 ||"^Refrain" [GA] | %10
w: when life is o’er,|Will * reap a rich|Oh, some- one * else|doi- *|ng|
w: when Je- sus comes,|A * crown of life|Oh, some- one * else|doi- *|ng|
w: at home and take|Your * com- fort and|Oh, some- one * else|doi- *|ng|
w: to you be giv’n|To * serve at Je-|Then no one * else|d- *|o|
 [Fd]2 [Fd] [Fc]2 [FA] | [EG][EA][GB] [FA]2 [DF] | [DE]2 [DE] [CA]2 [CA] | [DF]3- [DF]2 [FA] | %14
w: the work That you|for God should do; And|some- one else will|be * wear-|
w: the work That you|for God should do; And|some- one else will|be * wear-|
w: the work That you|for God should do; And|some- one else will|be * wear-|
w: the work That you|for God should do; And|no one else will|be * wear-|
 [Fd]2 [Fd] [Fc][FB][FA] | [EG][EA][GB] [FA]2 [DF] | [DE]2 [DE] [CA]2 [CA] | D2 B, [A,D]6 |] %18
w: ing the crown That God|had meant for you. *|||
w: ing the crown That God|had meant for you. *|||
w: ing the crown That God|had meant for you. *|||
w: ing the crown That God|has kept for you. *|||
V:2
 x | x6 | C2 D2 x2 | x3 D2 x | x6 | x6 | C2 D2 x2 | x3 D2 x | x5 || x | x6 | x6 | x6 | x6 | x6 | %15
w: ||asked to|“some-|||re- ward.|is||||||||
w: ||save a|“some-|||will win.|is||||||||
w: ||lands be-|you|||your ease.|is||||||||
w: ||thought- less|pray|||sus’ feet.|will||||||||
 x6 | x6 | D3- x6 |] %18
w: |||
w: |||
w: |||
w: |||
V:3
 [D,D] | [D,D]2 [D,D] [D,D]2 [D,A,] | (G,A,)[A,,G,] [D,F,]2 [D,F,] | G,2 G, (B,A,)G, | %4
 [D,F,]3- [D,F,]2 [D,A,] | [D,D]2 [D,D] [D,D]2 [D,A,] | (G,A,)[^A,,G,] [B,,F,]2 [B,,B,] | %7
 [E,^G,]2 [E,A,] [E,B,]2 [E,G,] | [A,,A,]3- [A,,A,]2 || [C,A,] | [D,A,]2 [D,A,] [F,A,]2 [F,C] | %11
 [G,B,][G,C][G,D] [D,D]2 [D,A,] | [G,B,]2 [G,B,] A,2 [A,,A,] | A,2 B, [D,A,]2 [D,A,] | %14
 [D,A,]2 [D,A,] [F,A,][F,D][F,C] | [G,B,][G,C][G,D] [D,D]2 [D,A,] | [G,B,]2 [G,B,] A,2 [A,,G,] | %17
 F,2 G, [D,F,]6 |] %18
V:4
 x | x6 | A,,2 x4 | G,2 G, G,2 G, | x6 | x6 | ^A,,2 x4 | x6 | x5 || x | x6 | x6 | x3 A,2 x | %13
 D,3- x3 | x6 | x6 | x3 A,2 x | D,3- x6 |] %18

